icons/op-view-list-16.svg

<svg width="16" height="16" viewBox="0 0 16 16" fill="none" xmlns="http://www.w3.org/2000/svg">
<g clip-path="url(#clip0_35_1757)">
<path d="M0 1.75C0 0.784 0.784 0 1.75 0H14.25C15.216 0 16 0.784 16 1.75V14.25C16 14.7141 15.8156 15.1592 15.4874 15.4874C15.1592 15.8156 14.7141 16 14.25 16H1.75C1.28587 16 0.840752 15.8156 0.512563 15.4874C0.184374 15.1592 0 14.7141 0 14.25V1.75ZM1.75 1.5C1.6837 1.5 1.62011 1.52634 1.57322 1.57322C1.52634 1.62011 1.5 1.6837 1.5 1.75V14.25C1.5 14.388 1.612 14.5 1.75 14.5H14.25C14.3163 14.5 14.3799 14.4737 14.4268 14.4268C14.4737 14.3799 14.5 14.3163 14.5 14.25V1.75C14.5 1.6837 14.4737 1.62011 14.4268 1.57322C14.3799 1.52634 14.3163 1.5 14.25 1.5H1.75Z" fill="#1F2328"/>
<path d="M3.21967 12.2197C3.36032 12.079 3.55109 12 3.75 12H12.25C12.4489 12 12.6397 12.079 12.7803 12.2197C12.921 12.3603 13 12.5511 13 12.75C13 12.9489 12.921 13.1397 12.7803 13.2803C12.6397 13.421 12.4489 13.5 12.25 13.5H3.75C3.55109 13.5 3.36032 13.421 3.21967 13.2803C3.07902 13.1397 3 12.9489 3 12.75C3 12.5511 3.07902 12.3603 3.21967 12.2197Z" fill="#1F2328"/>
<path d="M3.21967 6.21967C3.36032 6.07902 3.55109 6 3.75 6H12.25C12.4489 6 12.6397 6.07902 12.7803 6.21967C12.921 6.36032 13 6.55109 13 6.75C13 6.94891 12.921 7.13968 12.7803 7.28033C12.6397 7.42098 12.4489 7.5 12.25 7.5H3.75C3.55109 7.5 3.36032 7.42098 3.21967 7.28033C3.07902 7.13968 3 6.94891 3 6.75C3 6.55109 3.07902 6.36032 3.21967 6.21967Z" fill="#1F2328"/>
<path d="M3.21967 9.21967C3.36032 9.07902 3.55109 9 3.75 9H12.25C12.4489 9 12.6397 9.07902 12.7803 9.21967C12.921 9.36032 13 9.55109 13 9.75C13 9.94891 12.921 10.1397 12.7803 10.2803C12.6397 10.421 12.4489 10.5 12.25 10.5H3.75C3.55109 10.5 3.36032 10.421 3.21967 10.2803C3.07902 10.1397 3 9.94891 3 9.75C3 9.55109 3.07902 9.36032 3.21967 9.21967Z" fill="#1F2328"/>
<path d="M3.21967 3.21967C3.36032 3.07902 3.55109 3 3.75 3H12.25C12.4489 3 12.6397 3.07902 12.7803 3.21967C12.921 3.36032 13 3.55109 13 3.75C13 3.94891 12.921 4.13968 12.7803 4.28033C12.6397 4.42098 12.4489 4.5 12.25 4.5H3.75C3.55109 4.5 3.36032 4.42098 3.21967 4.28033C3.07902 4.13968 3 3.94891 3 3.75C3 3.55109 3.07902 3.36032 3.21967 3.21967Z" fill="#1F2328"/>
</g>
<defs>
<clipPath id="clip0_35_1757">
<rect width="16" height="16" fill="white"/>
</clipPath>
</defs>
</svg>

<svg xmlns="http://www.w3.org/2000/svg" width="16" height="16" viewBox="0 0 16 16"><path d="M0 1.75C0 .784.784 0 1.75 0h12.5C15.216 0 16 .784 16 1.75v12.5c0 .464-.184.909-.513 1.237A1.746 1.746 0 0 1 14.25 16H1.75c-.464 0-.909-.184-1.237-.513A1.746 1.746 0 0 1 0 14.25Zm1.75-.25a.25.25 0 0 0-.25.25v12.5c0 .138.112.25.25.25h12.5a.25.25 0 0 0 .25-.25V1.75a.25.25 0 0 0-.25-.25Z"/><path d="M3.22 12.22a.747.747 0 0 1 .53-.22h8.5c.199 0 .39.079.53.22a.747.747 0 0 1 0 1.06.747.747 0 0 1-.53.22h-8.5a.747.747 0 0 1-.53-.22.747.747 0 0 1 0-1.06Zm0-6A.747.747 0 0 1 3.75 6h8.5c.199 0 .39.079.53.22a.747.747 0 0 1 0 1.06.747.747 0 0 1-.53.22h-8.5a.747.747 0 0 1-.53-.22.747.747 0 0 1 0-1.06Zm0 3A.747.747 0 0 1 3.75 9h8.5c.199 0 .39.079.53.22a.747.747 0 0 1 0 1.06.747.747 0 0 1-.53.22h-8.5a.747.747 0 0 1-.53-.22.747.747 0 0 1 0-1.06Zm0-6A.747.747 0 0 1 3.75 3h8.5c.199 0 .39.079.53.22a.747.747 0 0 1 0 1.06.747.747 0 0 1-.53.22h-8.5a.747.747 0 0 1-.53-.22.747.747 0 0 1 0-1.06Z"/></svg>
